assets/svg/mission/arrow-mission.svg

<svg  viewBox="0 0 125 125" fill="none" xmlns="http://www.w3.org/2000/svg">
  <path d="M91.2809 91.2168C74.8636 107.634 48.4291 107.762 32.2375 91.5703C16.0459 75.3788 16.1738 48.9442 32.5911 32.5269C49.0084 16.1096 75.4429 15.9818 91.6345 32.1734C107.826 48.3649 107.698 74.7995 91.2809 91.2168Z" stroke="white" stroke-width="4" />
  <path d="M43.348 78.7674L43.4773 73.9844L73.8553 73.8552L73.9846 43.4772L78.7675 43.3479L78.7675 78.7674L43.348 78.7674Z" fill="white" />
  <path d="M74.5013 78.121L43.4769 47.0967L47.0964 43.4772L78.1207 74.5015L74.5013 78.121Z" fill="white" />
</svg>

<svg xmlns="http://www.w3.org/2000/svg" fill="none" viewBox="0 0 125 125"><path stroke="#fff" stroke-width="4" d="M91.28 91.217c-16.416 16.417-42.85 16.545-59.043.353-16.191-16.191-16.063-42.626.354-59.043s42.852-16.545 59.044-.354c16.191 16.192 16.063 42.626-.354 59.044Z"/><path fill="#fff" d="m43.348 78.767.13-4.783 30.377-.129.13-30.378 4.782-.13v35.42z"/><path fill="#fff" d="M74.501 78.121 43.477 47.097l3.62-3.62L78.12 74.501z"/></svg>
